X: 125
T: Cincinnati Hornpipe
M: C|
L: 1/8
R: hornpipe
Z: Mary Lou Knack?
B: NEFR #125
K: D
|:\
"D"DA FA DA FA | dA fA eA fA | "G"gA fA "E7"ed cd | "A7"ed cB AG FE |
"D"DA FA DA FA | dA fA eA fA | "G"gA fA "(Em)"ed cB | "A7"cd eg "D"fd d2 :|
|:\
"A7"eA AA "D"fA AA | "A7"gA AA "D"fA AA | "A7"eA fA gA fA | "A7"ed cB AG FE |
"D"Dd dd "A7"ce ee | "D(Bm)"df ff "A7(Em)"eg gg | "D"fg af "A7"bg ec | "D"d2 f2 d2 "(A7)"A2 :|
